icons/currency/caps.svg

<svg xmlns="http://www.w3.org/2000/svg" width="1064.001" height="1052.001" version="1.2" viewBox="0 0 798 789"><path d="M443.359 389.672q9.766 0 21.485-2.442 11.718-2.44 21.972-8.3t17.09-14.649 6.836-20.508q0-18.554-13.183-34.179t-32.227-26.856q-19.043-11.23-40.039-17.578-20.995-6.348-36.621-6.347-30.273 0-60.059 11.718-29.784 11.719-53.222 31.739t-38.086 47.363-14.649 59.57q0 39.063 16.602 70.313t43.945 53.222 61.524 34.18q34.18 12.207 70.312 12.207h12.695q7.813 0 14.649-1.465 6.836-1.464 6.836-6.347 0-9.767-9.766-18.555-9.765-8.79-18.555-8.789-6.835 0-13.183.976-6.348.977-14.16.977-27.344 0-51.758-6.836t-42.969-21.484q-18.554-14.649-29.297-36.622-10.742-21.972-10.742-51.269 0-28.32 13.184-53.711t34.668-43.945q21.484-18.555 48.828-29.297t54.687-10.742q5.86 0 16.602 1.953t21.484 5.859 18.555 9.766 7.812 14.648q0 6.836-4.394 12.207t-10.742 8.789a95.6 95.6 0 0 1-13.184 5.86q-6.836 2.441-12.695 3.418-3.906 1.953-7.813 1.953-.976 0-3.418-.489-2.441-.488-7.324-.488-6.836 0-6.836 6.836 0 12.696 12.207 20.02t22.949 7.324m-41.015-270.508q-12.696 0-29.297-2.93t-27.344-7.812q-13.671-5.859-29.297-18.555-15.624-12.695-31.25-12.695-3.906 0-3.906 2.93-2.93 18.555-9.277 43.457-6.348 24.902-17.578 46.875t-28.321 37.109q-17.09 15.137-41.504 15.137-8.788 0-17.578-.489-8.789-.487-16.601-3.418-4.884-1.953-11.719-5.859-6.836-3.906-11.719-3.906-3.906 0-3.906 3.906v1.953a2198 2198 0 0 1 18.066 85.449q8.301 43.458 8.301 87.403 0 23.438-8.301 39.062-8.301 15.626-18.066 26.367-9.766 10.743-18.067 17.09-8.3 6.348-8.3 10.254 0 10.743 14.648 19.043t32.227 21.485 32.226 34.179q14.649 20.996 14.649 56.153 0 18.554-1.953 36.132a652 652 0 0 1-4.883 35.157v.976q0 5.86 6.836 11.719t12.695 5.859q1.953 0 8.301-7.812t9.277-9.766q18.555-18.554 41.992-28.808 23.438-10.254 49.805-10.254 19.532 0 43.457 6.836 23.927 6.835 40.527 15.625 5.86 2.929 16.602 10.742 10.742 7.812 15.625 7.812 2.93 0 3.906-.976a785 785 0 0 0 10.742-14.649q4.883-6.835 12.696-13.672 19.531-15.624 45.898-23.925t50.781-8.301q12.696 0 26.368 4.883t21.484 4.883q4.883 0 4.883-3.907 0-1.953-2.442-5.859-2.44-3.907-6.347-9.277-3.906-5.372-11.719-20.997-6.836-19.53-7.813-40.039a862 862 0 0 1-.976-41.015q0-58.594 21.484-111.328t59.571-96.68q.976-.977.976-2.93 0-5.859-5.859-11.23-5.86-5.372-10.742-6.348-34.18-5.86-56.641-14.648-22.461-8.79-35.645-23.926-13.184-15.137-18.554-38.086-5.371-22.95-5.371-56.152 0-12.696.488-25.391.488-12.696.488-26.367 0-9.765-10.742-14.649-6.836-6.836-13.672-6.836-2.93 0-3.906 1.954-14.649 22.46-42.481 30.761-27.831 8.301-53.222 8.301m13.672 21.484q21.484 0 44.433-4.882 22.95-4.884 41.504-17.578-.976 4.882-.976 19.531 0 70.312 28.808 108.886 28.809 38.575 93.262 54.2-70.313 87.89-70.313 202.148 0 26.367 2.93 54.199t16.602 50.293a1658 1658 0 0 0-18.067-3.906q-9.278-1.953-18.066-1.953-34.18 0-67.871 14.648-33.692 14.648-54.199 43.946-23.438-16.602-56.641-26.856t-59.57-10.254q-48.83 0-84.961 27.344.976-6.836.976-25.391 0-27.344-6.836-46.386t-18.554-33.692q-11.72-14.648-27.832-27.343-16.114-12.696-34.668-26.368 22.461-20.507 34.668-38.574t12.207-51.269q0-41.992-7.325-83.008a2430 2430 0 0 0-16.113-82.031q12.696 4.883 22.461 6.347t27.344 1.465q26.367 0 44.433-14.648 18.067-14.649 30.762-36.133t19.531-46.387q6.837-24.902 9.766-45.41v-.977q7.812 2.93 16.113 9.278 8.3 6.347 16.114 11.23 17.577 10.742 39.062 15.137t41.016 4.394M237.305 8.813q8.789 7.812 17.09 17.09t21.972 13.183q23.438 6.836 47.363 8.3 23.927 1.466 49.317 1.466 19.531 0 47.851-2.442 28.32-2.441 57.618-7.812 29.297-5.371 55.664-14.649T575.195 1q-10.741 14.648-13.672 29.297-2.93 14.649-2.929 26.367 0 6.835 1.465 20.02 1.464 13.183 8.789 31.25 7.324 18.066 18.066 32.714 28.32 40.04 71.777 71.778t96.192 40.527q-25.39 17.578-43.457 44.434-18.066 26.855-30.274 57.129-12.207 30.273-18.066 62.988t-7.813 62.012q0 22.461 2.93 48.339 2.93 25.88 11.231 49.805 8.3 23.927 22.949 42.969 14.648 19.043 39.062 28.809-41.991 4.883-84.961 13.671-42.968 8.79-81.054 31.25-27.344 15.625-46.387 40.528t-23.926 53.222a855 855 0 0 1-57.617-19.531 2373 2373 0 0 0-57.617-20.996 625 625 0 0 0-59.57-17.578 301 301 0 0 0-61.524-8.301h-6.836q-19.531 0-41.504 5.371t-42.48 16.114v-4.883q0-38.086-13.184-75.196t-35.644-72.265Q99.61 560.57 74.707 531.273t-60.059-40.039q22.461-10.741 37.598-27.832 15.136-17.09 23.926-38.574 8.79-21.485 12.695-45.41 3.906-23.926 3.906-46.387-.975-46.875-8.3-96.679-7.324-49.806-32.715-91.797 34.179-7.813 70.801-15.137t66.894-29.785q23.438-17.578 34.668-38.574 11.23-20.997 11.231-44.434V8.813z"/></svg>

<?xml version="1.0" encoding="UTF-8" standalone="no"?>
<svg width="281.517mm" height="278.342mm" viewBox="0 0 798 789" xmlns="http://www.w3.org/2000/svg" xmlns:xlink="http://www.w3.org/1999/xlink"  version="1.2">
  <path vector-effect="none" fill-rule="nonzero" d="M443.359,389.672 C449.87,389.672 457.031,388.858 464.844,387.23 C472.656,385.603 479.98,382.836 486.816,378.93 C493.652,375.023 499.349,370.141 503.906,364.281 C508.464,358.422 510.742,351.586 510.742,343.773 C510.742,331.404 506.348,320.01 497.559,309.594 C488.77,299.177 478.027,290.225 465.332,282.738 C452.637,275.251 439.29,269.392 425.293,265.16 C411.296,260.928 399.089,258.813 388.672,258.813 C368.49,258.813 348.47,262.719 328.613,270.531 C308.757,278.344 291.016,288.923 275.391,302.27 C259.766,315.616 247.07,331.404 237.305,349.633 C227.539,367.862 222.656,387.719 222.656,409.203 C222.656,435.245 228.19,458.682 239.258,479.516 C250.326,500.349 264.974,518.09 283.203,532.738 C301.432,547.387 321.94,558.78 344.727,566.918 C367.513,575.056 390.951,579.125 415.039,579.125 L427.734,579.125 C432.943,579.125 437.826,578.637 442.383,577.66 C446.94,576.684 449.219,574.568 449.219,571.313 C449.219,564.802 445.964,558.617 439.453,552.758 C432.943,546.898 426.758,543.969 420.898,543.969 C416.341,543.969 411.947,544.294 407.715,544.945 C403.483,545.596 398.763,545.922 393.555,545.922 C375.326,545.922 358.073,543.643 341.797,539.086 C325.521,534.529 311.198,527.367 298.828,517.602 C286.458,507.836 276.693,495.629 269.531,480.98 C262.37,466.332 258.789,449.242 258.789,429.711 C258.789,410.831 263.184,392.927 271.973,376 C280.762,359.073 292.318,344.424 306.641,332.055 C320.964,319.685 337.24,309.919 355.469,302.758 C373.698,295.596 391.927,292.016 410.156,292.016 C414.063,292.016 419.596,292.667 426.758,293.969 C433.919,295.271 441.081,297.224 448.242,299.828 C455.404,302.432 461.589,305.688 466.797,309.594 C472.005,313.5 474.609,318.383 474.609,324.242 C474.609,328.799 473.145,332.868 470.215,336.449 C467.285,340.03 463.704,342.96 459.473,345.238 C455.241,347.517 450.846,349.47 446.289,351.098 C441.732,352.725 437.5,353.865 433.594,354.516 C430.99,355.818 428.385,356.469 425.781,356.469 C425.13,356.469 423.991,356.306 422.363,355.98 C420.736,355.655 418.294,355.492 415.039,355.492 C410.482,355.492 408.203,357.771 408.203,362.328 C408.203,370.792 412.272,377.465 420.41,382.348 C428.548,387.23 436.198,389.672 443.359,389.672 M402.344,119.164 C393.88,119.164 384.115,118.188 373.047,116.234 C361.979,114.281 352.865,111.677 345.703,108.422 C336.589,104.516 326.823,98.3307 316.406,89.8672 C305.99,81.4036 295.573,77.1719 285.156,77.1719 C282.552,77.1719 281.25,78.1484 281.25,80.1016 C279.297,92.4714 276.204,106.957 271.973,123.559 C267.741,140.16 261.882,155.785 254.395,170.434 C246.908,185.082 237.467,197.452 226.074,207.543 C214.681,217.634 200.846,222.68 184.57,222.68 C178.711,222.68 172.852,222.517 166.992,222.191 C161.133,221.866 155.599,220.727 150.391,218.773 C147.135,217.471 143.229,215.518 138.672,212.914 C134.115,210.31 130.208,209.008 126.953,209.008 C124.349,209.008 123.047,210.31 123.047,212.914 L123.047,214.867 C129.557,242.862 135.579,271.345 141.113,300.316 C146.647,329.288 149.414,358.422 149.414,387.719 C149.414,403.344 146.647,416.365 141.113,426.781 C135.579,437.198 129.557,445.987 123.047,453.148 C116.536,460.31 110.514,466.007 104.98,470.238 C99.4466,474.47 96.6797,477.888 96.6797,480.492 C96.6797,487.654 101.563,494.001 111.328,499.535 C121.094,505.069 131.836,512.23 143.555,521.02 C155.273,529.809 166.016,541.202 175.781,555.199 C185.547,569.197 190.43,587.914 190.43,611.352 C190.43,623.721 189.779,635.766 188.477,647.484 C187.174,659.203 185.547,670.922 183.594,682.641 L183.594,683.617 C183.594,687.523 185.872,691.43 190.43,695.336 C194.987,699.242 199.219,701.195 203.125,701.195 C204.427,701.195 207.194,698.591 211.426,693.383 C215.658,688.174 218.75,684.919 220.703,683.617 C233.073,671.247 247.07,661.645 262.695,654.809 C278.32,647.973 294.922,644.555 312.5,644.555 C325.521,644.555 340.007,646.833 355.957,651.391 C371.908,655.948 385.417,661.156 396.484,667.016 C400.391,668.969 405.924,672.549 413.086,677.758 C420.247,682.966 425.456,685.57 428.711,685.57 C430.664,685.57 431.966,685.245 432.617,684.594 C436.523,679.385 440.104,674.503 443.359,669.945 C446.615,665.388 450.846,660.831 456.055,656.273 C469.076,645.857 484.375,637.882 501.953,632.348 C519.531,626.814 536.458,624.047 552.734,624.047 C561.198,624.047 569.987,625.674 579.102,628.93 C588.216,632.185 595.378,633.813 600.586,633.813 C603.841,633.813 605.469,632.51 605.469,629.906 C605.469,628.604 604.655,626.651 603.027,624.047 C601.4,621.443 599.284,618.35 596.68,614.77 C594.076,611.189 590.169,604.19 584.961,593.773 C580.404,580.753 577.799,567.406 577.148,553.734 C576.497,540.063 576.172,526.391 576.172,512.719 C576.172,473.656 583.333,436.547 597.656,401.391 C611.979,366.234 631.836,334.008 657.227,304.711 C657.878,304.06 658.203,303.083 658.203,301.781 C658.203,297.875 656.25,294.132 652.344,290.551 C648.438,286.97 644.857,284.854 641.602,284.203 C618.815,280.297 599.935,275.414 584.961,269.555 C569.987,263.695 558.105,255.72 549.316,245.629 C540.527,235.538 534.342,222.842 530.762,207.543 C527.181,192.243 525.391,173.526 525.391,151.391 C525.391,142.927 525.553,134.464 525.879,126 C526.204,117.536 526.367,108.747 526.367,99.6328 C526.367,93.1224 522.786,88.2396 515.625,84.9844 C511.068,80.4271 506.51,78.1484 501.953,78.1484 C500,78.1484 498.698,78.7995 498.047,80.1016 C488.281,95.0755 474.121,105.329 455.566,110.863 C437.012,116.397 419.271,119.164 402.344,119.164 M416.016,140.648 C430.339,140.648 445.15,139.021 460.449,135.766 C475.749,132.51 489.583,126.651 501.953,118.188 C501.302,121.443 500.977,127.953 500.977,137.719 C500.977,184.594 510.579,220.889 529.785,246.605 C548.991,272.322 580.078,290.388 623.047,300.805 C576.172,359.398 552.734,426.781 552.734,502.953 C552.734,520.531 553.711,538.598 555.664,557.152 C557.617,575.707 563.151,592.471 572.266,607.445 C566.406,606.143 560.384,604.841 554.199,603.539 C548.014,602.237 541.992,601.586 536.133,601.586 C513.346,601.586 490.723,606.469 468.262,616.234 C445.801,626 427.734,640.648 414.063,660.18 C398.438,649.112 379.557,640.16 357.422,633.324 C335.286,626.488 315.43,623.07 297.852,623.07 C265.299,623.07 236.979,632.185 212.891,650.414 C213.542,645.857 213.867,637.393 213.867,625.023 C213.867,606.794 211.589,591.332 207.031,578.637 C202.474,565.941 196.289,554.711 188.477,544.945 C180.664,535.18 171.387,526.065 160.645,517.602 C149.902,509.138 138.346,500.349 125.977,491.234 C140.951,477.563 152.507,464.704 160.645,452.66 C168.783,440.616 172.852,423.526 172.852,401.391 C172.852,373.396 170.41,345.727 165.527,318.383 C160.645,291.039 155.273,263.695 149.414,236.352 C157.878,239.607 165.365,241.723 171.875,242.699 C178.385,243.676 187.5,244.164 199.219,244.164 C216.797,244.164 231.608,239.281 243.652,229.516 C255.697,219.75 265.951,207.706 274.414,193.383 C282.878,179.06 289.388,163.598 293.945,146.996 C298.503,130.395 301.758,115.258 303.711,101.586 L303.711,100.609 C308.919,102.563 314.29,105.655 319.824,109.887 C325.358,114.118 330.729,117.862 335.938,121.117 C347.656,128.279 360.677,133.324 375,136.254 C389.323,139.184 402.995,140.648 416.016,140.648 M237.305,8.8125 C243.164,14.0208 248.861,19.7174 254.395,25.9023 C259.928,32.0872 267.253,36.4818 276.367,39.0859 C291.992,43.6432 307.78,46.4102 323.73,47.3867 C339.681,48.3633 356.12,48.8516 373.047,48.8516 C386.068,48.8516 402.018,48.0378 420.898,46.4102 C439.779,44.7826 458.984,42.1784 478.516,38.5977 C498.047,35.0169 516.602,30.1341 534.18,23.9492 C551.758,17.7643 565.43,10.1146 575.195,1 C568.034,10.7656 563.477,20.5313 561.523,30.2969 C559.57,40.0625 558.594,48.8516 558.594,56.6641 C558.594,61.2214 559.082,67.8945 560.059,76.6836 C561.035,85.4727 563.965,95.8893 568.848,107.934 C573.73,119.978 579.753,130.883 586.914,140.648 C605.794,167.341 629.72,191.267 658.691,212.426 C687.663,233.585 719.727,247.094 754.883,252.953 C737.956,264.672 723.47,279.483 711.426,297.387 C699.382,315.29 689.29,334.333 681.152,354.516 C673.014,374.698 666.992,395.694 663.086,417.504 C659.18,439.314 656.576,459.984 655.273,479.516 C655.273,494.49 656.25,510.603 658.203,527.855 C660.156,545.108 663.9,561.71 669.434,577.66 C674.967,593.611 682.617,607.934 692.383,620.629 C702.148,633.324 715.169,642.927 731.445,649.438 C703.451,652.693 675.13,657.25 646.484,663.109 C617.839,668.969 590.82,679.385 565.43,694.359 C547.201,704.776 531.738,718.285 519.043,734.887 C506.348,751.488 498.372,769.229 495.117,788.109 C475.586,782.25 456.38,775.74 437.5,768.578 C418.62,761.417 399.414,754.418 379.883,747.582 C360.352,740.746 340.495,734.887 320.313,730.004 C300.13,725.121 279.622,722.354 258.789,721.703 C256.836,721.703 254.557,721.703 251.953,721.703 C238.932,721.703 225.098,723.493 210.449,727.074 C195.801,730.655 181.641,736.026 167.969,743.188 C167.969,741.234 167.969,739.607 167.969,738.305 C167.969,712.914 163.574,687.849 154.785,663.109 C145.996,638.37 134.115,614.281 119.141,590.844 C106.12,570.661 91.3086,550.805 74.707,531.273 C58.1055,511.742 38.0859,498.396 14.6484,491.234 C29.6224,484.073 42.1549,474.796 52.2461,463.402 C62.3372,452.009 70.3125,439.151 76.1719,424.828 C82.0313,410.505 86.263,395.368 88.8672,379.418 C91.4714,363.467 92.7734,348.005 92.7734,333.031 C92.1224,301.781 89.3555,269.555 84.4727,236.352 C79.5898,203.148 68.6849,172.549 51.7578,144.555 C74.5443,139.346 98.1445,134.301 122.559,129.418 C146.973,124.535 169.271,114.607 189.453,99.6328 C205.078,87.9141 216.634,75.056 224.121,61.0586 C231.608,47.0612 235.352,32.25 235.352,16.625 C235.352,14.0208 235.352,11.4167 235.352,8.8125 L237.305,8.8125"/>
</svg>
